assets/img/icons/social/dribbble.svg

<svg id="Layer_1" xmlns="http://www.w3.org/2000/svg" viewBox="0 0 75.6 75.6"><style>.st0{fill-rule:evenodd;clip-rule:evenodd}</style><path class="st0" d="M37.8 0C16.9 0 0 16.9 0 37.8s16.9 37.8 37.8 37.8c20.8 0 37.8-16.9 37.8-37.8S58.7 0 37.8 0zm25 17.4c4.5 5.5 7.2 12.5 7.3 20.1-1.1-.2-11.7-2.4-22.5-1-.2-.5-.5-1.1-.7-1.7-.7-1.6-1.4-3.2-2.1-4.7 11.9-4.8 17.3-11.8 18-12.7zm-25-11.8c8.2 0 15.7 3.1 21.4 8.1-.6.8-5.5 7.3-16.9 11.6C37 15.6 31.1 7.7 30.2 6.4c2.4-.5 5-.8 7.6-.8zm-13.7 3c.9 1.1 6.6 9.1 12 18.7-15.1 4-28.4 3.9-29.9 3.9 2.1-10 8.9-18.3 17.9-22.6zM5.5 37.9v-1c1.4 0 17.1.2 33.2-4.6.9 1.8 1.8 3.7 2.6 5.5-.4.1-.9.2-1.3.4-16.7 5.4-25.5 20.1-26.3 21.3-5-5.8-8.2-13.4-8.2-21.6zm32.3 32.2c-7.5 0-14.4-2.5-19.8-6.8.6-1.2 7.1-13.8 25.3-20.2.1 0 .1 0 .2-.1 4.6 11.8 6.4 21.7 6.9 24.5-3.8 1.7-8.1 2.6-12.6 2.6zm18-5.5c-.3-2-2.1-11.4-6.3-23 10.1-1.6 19 1 20.1 1.4-1.3 9-6.5 16.7-13.8 21.6z"/></svg>

<?xml version="1.0" encoding="utf-8"?>
<!-- Generator: Adobe Illustrator 23.0.1, SVG Export Plug-In . SVG Version: 6.00 Build 0)  -->
<svg version="1.1" id="Layer_1" xmlns="http://www.w3.org/2000/svg" xmlns:xlink="http://www.w3.org/1999/xlink" x="0px" y="0px"
	 viewBox="0 0 75.6 75.6" style="enable-background:new 0 0 75.6 75.6;" xml:space="preserve">
<style type="text/css">
	.st0{fill-rule:evenodd;clip-rule:evenodd;}
</style>
<path class="st0" d="M37.8,0C16.9,0,0,16.9,0,37.8s16.9,37.8,37.8,37.8c20.8,0,37.8-16.9,37.8-37.8S58.7,0,37.8,0z M62.8,17.4
	c4.5,5.5,7.2,12.5,7.3,20.1c-1.1-0.2-11.7-2.4-22.5-1c-0.2-0.5-0.5-1.1-0.7-1.7c-0.7-1.6-1.4-3.2-2.1-4.7
	C56.7,25.3,62.1,18.3,62.8,17.4z M37.8,5.6c8.2,0,15.7,3.1,21.4,8.1c-0.6,0.8-5.5,7.3-16.9,11.6C37,15.6,31.1,7.7,30.2,6.4
	C32.6,5.9,35.2,5.6,37.8,5.6z M24.1,8.6c0.9,1.1,6.6,9.1,12,18.7c-15.1,4-28.4,3.9-29.9,3.9C8.3,21.2,15.1,12.9,24.1,8.6z M5.5,37.9
	c0-0.3,0-0.7,0-1c1.4,0,17.1,0.2,33.2-4.6c0.9,1.8,1.8,3.7,2.6,5.5c-0.4,0.1-0.9,0.2-1.3,0.4c-16.7,5.4-25.5,20.1-26.3,21.3
	C8.7,53.7,5.5,46.1,5.5,37.9z M37.8,70.1c-7.5,0-14.4-2.5-19.8-6.8c0.6-1.2,7.1-13.8,25.3-20.2c0.1,0,0.1,0,0.2-0.1
	c4.6,11.8,6.4,21.7,6.9,24.5C46.6,69.2,42.3,70.1,37.8,70.1z M55.8,64.6c-0.3-2-2.1-11.4-6.3-23c10.1-1.6,19,1,20.1,1.4
	C68.3,52,63.1,59.7,55.8,64.6z"/>
</svg>
